plasma/desktoptheme/icons/printer.svg

<?xml version="1.0" encoding="UTF-8" standalone="no"?>
<svg
   version="1.1"
   viewBox="0 0 22 22"
   id="svg27"
   sodipodi:docname="printer.svg"
   inkscape:version="1.1.1 (3bf5ae0d25, 2021-09-20, custom)"
   xmlns:inkscape="http://www.inkscape.org/namespaces/inkscape"
   xmlns:sodipodi="http://sodipodi.sourceforge.net/DTD/sodipodi-0.dtd"
   xmlns="http://www.w3.org/2000/svg"
   xmlns:svg="http://www.w3.org/2000/svg">
  <sodipodi:namedview
     id="namedview29"
     pagecolor="#ffffff"
     bordercolor="#666666"
     borderopacity="1.0"
     inkscape:pageshadow="2"
     inkscape:pageopacity="0.0"
     inkscape:pagecheckerboard="0"
     showgrid="true"
     inkscape:snap-bbox="true"
     inkscape:bbox-nodes="true"
     inkscape:snap-nodes="true"
     inkscape:zoom="7.2727273"
     inkscape:cx="-51.2875"
     inkscape:cy="16.775"
     inkscape:window-width="1920"
     inkscape:window-height="1004"
     inkscape:window-x="0"
     inkscape:window-y="0"
     inkscape:window-maximized="1"
     inkscape:current-layer="svg27">
    <inkscape:grid
       type="xygrid"
       id="grid846" />
  </sodipodi:namedview>
  <defs
     id="defs3">
    <style
       id="current-color-scheme"
       type="text/css">.ColorScheme-Text { color:#363636; }</style>
  </defs>
  <g
     id="22-22-printer"
     class="ColorScheme-Text"
     fill="currentColor">
    <path
       d="m7 2c-1.108 0-2 0.892-2 2v1c-1.662 0-3 1.338-3 3v6c0 1.662 1.338 3 3 3v1c0 1.108 0.892 2 2 2h8c1.108 0 2-0.892 2-2v-1c1.662 0 3-1.338 3-3v-6c0-1.662-1.338-3-3-3v-1c0-1.108-0.892-2-2-2h-8zm0 2h8v1h-8v-1zm-2 3h12c0.554 0 1 0.446 1 1v6c0 0.554-0.446 1-1 1v-4c0-1.108-0.892-2-2-2h-8c-1.108 0-2 0.892-2 2v4c-0.554 0-1-0.446-1-1v-6c0-0.554 0.446-1 1-1zm2 4h8v4 3h-8v-1-2-4zm1 2v1h6v-1h-6zm0 2v1h6v-1h-6z"
       id="path5" />
    <rect
       width="22"
       height="22"
       fill-opacity="0"
       id="rect7" />
  </g>
  <g
     id="printer"
     class="ColorScheme-Text"
     fill="currentColor">
    <rect
       x="-42"
       y="-5"
       width="32"
       height="32"
       fill-opacity="0"
       id="rect24"
       style="color:#363636;fill:#363636" />
    <g
       id="g6649"
       transform="translate(27)">
      <path
         id="rect884"
         d="m -58,-2 c -1.662,0 -3,1.338 -3,3 v 2 c -0.554,0 -1,0.446 -1,1 v 3 h -1 c -1.662,0 -3,1.338 -3,3 v 6 c 0,1.662 1.338,3 3,3 h 1 c 0,0.554 0.446,1 1,1 v 1 c 0,1.662 1.338,3 3,3 h 10 c 1.662,0 3,-1.338 3,-3 v -1 c 0.554,0 1,-0.446 1,-1 h 1 c 1.662,0 3,-1.338 3,-3 v -6 c 0,-1.662 -1.338,-3 -3,-3 h -1 V 4 c 0,-0.554 -0.446,-1 -1,-1 V 1 c 0,-1.662 -1.338,-3 -3,-3 z m 0,2 h 10 c 0.554,0 1,0.446 1,1 V 7 H -59 V 3 1 c 0,-0.554 0.446,-1 1,-1 z m -5,9 h 1 1 2 12 1 1 1 1 c 0.554,0 1,0.446 1,1 v 6 c 0,0.554 -0.446,1 -1,1 h -1 -1 -1 -1 -12 -2 -1 -1 c -0.554,0 -1,-0.446 -1,-1 v -6 c 0,-0.554 0.446,-1 1,-1 z m 4,10 h 12 v 2 c 0,0.554 -0.446,1 -1,1 h -10 c -0.554,0 -1,-0.446 -1,-1 v -1 z" />
      <path
         id="rect5895"
         d="m -61,9 v 4 c 0,1.108 0.892,2 2,2 h 12 c 1.108,0 2,-0.892 2,-2 V 9 Z"
         style="opacity:0.15" />
    </g>
  </g>
</svg>

<?xml version="1.0" encoding="UTF-8" standalone="no"?>
<svg
   version="1.1"
   viewBox="0 0 22 22"
   id="svg27"
   sodipodi:docname="printer.svg"
   inkscape:version="1.1.1 (3bf5ae0d25, 2021-09-20, custom)"
   xmlns:inkscape="http://www.inkscape.org/namespaces/inkscape"
   xmlns:sodipodi="http://sodipodi.sourceforge.net/DTD/sodipodi-0.dtd"
   xmlns="http://www.w3.org/2000/svg"
   xmlns:svg="http://www.w3.org/2000/svg">
  <sodipodi:namedview
     id="namedview29"
     pagecolor="#ffffff"
     bordercolor="#666666"
     borderopacity="1.0"
     inkscape:pageshadow="2"
     inkscape:pageopacity="0.0"
     inkscape:pagecheckerboard="0"
     showgrid="true"
     inkscape:snap-bbox="true"
     inkscape:bbox-nodes="true"
     inkscape:snap-nodes="true"
     inkscape:zoom="3.6363637"
     inkscape:cx="3.3"
     inkscape:cy="19.525"
     inkscape:window-width="1440"
     inkscape:window-height="748"
     inkscape:window-x="0"
     inkscape:window-y="28"
     inkscape:window-maximized="1"
     inkscape:current-layer="svg27">
    <inkscape:grid
       type="xygrid"
       id="grid846" />
  </sodipodi:namedview>
  <defs
     id="defs3">
    <style
       id="current-color-scheme"
       type="text/css">.ColorScheme-Text { color:#363636; }</style>
  </defs>
  <g
     id="22-22-printer"
     class="ColorScheme-Text"
     fill="currentColor">
    <path
       d="M 7,2 C 5.892,2 5,2.892 5,4 V 5 C 3.338,5 2,6.338 2,8 v 6 c 0,1.662 1.338,3 3,3 v 1 c 0,1.108 0.892,2 2,2 h 8 c 1.108,0 2,-0.892 2,-2 v -1 c 1.662,0 3,-1.338 3,-3 V 8 C 20,6.338 18.662,5 17,5 V 4 C 17,2.892 16.108,2 15,2 Z m 0,2 h 8 V 5 H 7 Z M 5,7 h 12 c 0.554,0 1,0.446 1,1 v 6 c 0,0.554 -0.446,1 -1,1 V 11 C 17,9.892 16.108,9 15,9 H 7 C 5.892,9 5,9.892 5,11 v 4 C 4.446,15 4,14.554 4,14 V 8 C 4,7.446 4.446,7 5,7 Z m 2,4 h 8 v 4 3 H 7 v -1 -2 z"
       id="path5"
       sodipodi:nodetypes="sscsscsssscsscssscccccsssscsssscssscccccccc" />
    <rect
       width="22"
       height="22"
       fill-opacity="0"
       id="rect7" />
  </g>
  <g
     id="printer"
     class="ColorScheme-Text"
     fill="currentColor">
    <rect
       x="-42"
       y="-5"
       width="32"
       height="32"
       fill-opacity="0"
       id="rect24"
       style="color:#363636;fill:#363636" />
    <g
       id="g6649"
       transform="translate(27)">
      <path
         id="rect884"
         d="m -58,-2 c -1.662,0 -3,1.338 -3,3 v 2 c -0.554,0 -1,0.446 -1,1 v 3 h -1 c -1.662,0 -3,1.338 -3,3 v 6 c 0,1.662 1.338,3 3,3 h 1 c 0,0.554 0.446,1 1,1 v 1 c 0,1.662 1.338,3 3,3 h 10 c 1.662,0 3,-1.338 3,-3 v -1 c 0.554,0 1,-0.446 1,-1 h 1 c 1.662,0 3,-1.338 3,-3 v -6 c 0,-1.662 -1.338,-3 -3,-3 h -1 V 4 c 0,-0.554 -0.446,-1 -1,-1 V 1 c 0,-1.662 -1.338,-3 -3,-3 z m 0,2 h 10 c 0.554,0 1,0.446 1,1 V 7 H -59 V 3 1 c 0,-0.554 0.446,-1 1,-1 z m -5,9 h 1 1 2 12 1 1 1 1 c 0.554,0 1,0.446 1,1 v 6 c 0,0.554 -0.446,1 -1,1 h -1 -1 -1 -1 -12 -2 -1 -1 c -0.554,0 -1,-0.446 -1,-1 v -6 c 0,-0.554 0.446,-1 1,-1 z m 4,10 h 12 v 2 c 0,0.554 -0.446,1 -1,1 h -10 c -0.554,0 -1,-0.446 -1,-1 v -1 z" />
      <path
         id="rect5895"
         d="m -61,9 v 4 c 0,1.108 0.892,2 2,2 h 12 c 1.108,0 2,-0.892 2,-2 V 9 Z"
         style="opacity:0.15" />
    </g>
  </g>
</svg>
